svg/u1f970.svg

<svg viewBox="0 0 128 128" xmlns="http://www.w3.org/2000/svg">
  <radialGradient id="face_1_" cx="63.6" cy="-2088.8999" gradientTransform="matrix(1 0 0 -1 0 -2026)" gradientUnits="userSpaceOnUse" r="56.9597">
    <stop offset="0.5" stop-color="#FDE030"/>
    <stop offset="0.9188" stop-color="#F7C02B"/>
    <stop offset="1" stop-color="#F4A223"/>
  </radialGradient>
  <path id="face_15_" d="M63.6,118.8c-27.9,0-58-17.5-58-55.9S35.7,7,63.6,7c15.5,0,29.8,5.1,40.4,14.4 c11.5,10.2,17.6,24.6,17.6,41.5s-6.1,31.2-17.6,41.4C93.4,113.6,79,118.8,63.6,118.8z" fill="url(#face_1_)"/>
  <path d="M111.49,29.67c5.33,8.6,8.11,18.84,8.11,30.23c0,16.9-6.1,31.2-17.6,41.4 c-10.6,9.3-25,14.5-40.4,14.5c-18.06,0-37.04-7.35-48.18-22.94c10.76,17.66,30.99,25.94,50.18,25.94c15.4,0,29.8-5.2,40.4-14.5 c11.5-10.2,17.6-24.5,17.6-41.4C121.6,50.16,118.13,38.84,111.49,29.67z" fill="#EB8F00"/>
  <g id="three-heart-face_2_">
    <g id="blush_3_">
      <radialGradient id="SVGID_1_" cx="25.7006" cy="61.378" gradientTransform="matrix(0.9791 0 0 0.9301 2.0871 5.7411)" gradientUnits="userSpaceOnUse" r="19.4444">
        <stop offset="0" stop-color="#ED7770"/>
        <stop offset="0.9" stop-color="#ED7770" stop-opacity="0"/>
      </radialGradient>
      <circle cx="27.25" cy="62.83" fill="url(#SVGID_1_)" opacity="0.8" r="17.5"/>
      <radialGradient id="SVGID_2_" cx="100.7714" cy="61.378" gradientTransform="matrix(0.9791 0 0 0.9301 2.0871 5.7411)" gradientUnits="userSpaceOnUse" r="19.4444">
        <stop offset="0" stop-color="#ED7770"/>
        <stop offset="0.9" stop-color="#ED7770" stop-opacity="0"/>
      </radialGradient>
      <circle cx="100.75" cy="62.83" fill="url(#SVGID_2_)" opacity="0.8" r="17.5"/>
    </g>
    <path id="mouth_91_" d="M100.69,65.04C90.42,71,77.74,74.53,64,74.53c-13.74,0-26.42-3.53-36.69-9.49 c-1.89-1.09-3.87,1.27-2.46,2.92c9.3,10.87,23.38,17.8,39.15,17.8c15.77,0,29.85-6.93,39.15-17.8 C104.57,66.3,102.58,63.94,100.69,65.04z" fill="#422B0D"/>
    <g id="eyes_71_">
      <path d="M49.56,44.12c0,0-0.05-0.07-0.16-0.2c-0.1-0.13-0.24-0.31-0.42-0.54 c-0.15-0.16-0.33-0.35-0.54-0.57c-0.21-0.24-0.47-0.49-0.73-0.75c-0.27-0.25-0.55-0.51-0.84-0.72c-0.28-0.23-0.59-0.4-0.84-0.54 c-0.26-0.16-0.5-0.2-0.65-0.25c-0.08-0.03-0.15-0.03-0.21-0.04c-0.03,0.01-0.06-0.01-0.09,0l-0.04,0.01l-0.02,0l-0.01,0l0,0l0,0 l0,0c0.12,0-0.27,0.01,0.27-0.01l-0.55,0.02c-0.14,0-0.05,0.01-0.04,0.01c0.03,0,0.05,0,0.07-0.01c0.08-0.03,0,0-0.02,0 c-0.03,0-0.07,0.01-0.11,0.03c-0.16,0.05-0.4,0.09-0.65,0.25c-0.25,0.14-0.56,0.31-0.84,0.54c-0.28,0.22-0.57,0.47-0.84,0.72 c-0.52,0.51-0.98,1.02-1.3,1.39c-0.33,0.38-0.51,0.6-0.51,0.6l-0.23,0.27c-1.37,1.6-3.89,1.87-5.62,0.61 c-1.18-0.86-1.69-2.2-1.47-3.48c0,0,0.07-0.41,0.27-1.12c0.21-0.71,0.56-1.72,1.25-2.91c0.69-1.18,1.69-2.57,3.38-3.84 c0.83-0.62,1.84-1.24,3.04-1.66c0.29-0.11,0.6-0.21,0.92-0.29c0.33-0.08,0.59-0.17,1.04-0.23l0.62-0.09 c0.19-0.02,0.47-0.05,0.51-0.05l0.55-0.04l0.31-0.01l0.03,0l0.06,0l0.13,0.01l0.26,0.01l0.51,0.03c0.34,0.03,0.67,0.09,1,0.14 c0.65,0.12,1.3,0.29,1.89,0.51c1.2,0.42,2.21,1.03,3.04,1.66c1.69,1.27,2.69,2.66,3.38,3.84c0.35,0.59,0.61,1.15,0.8,1.64 c0.21,0.47,0.36,0.97,0.48,1.34c0.11,0.36,0.11,0.55,0.16,0.72c0.03,0.16,0.04,0.25,0.04,0.25c0.37,2.02-1.12,3.93-3.31,4.26 C51.94,45.88,50.43,45.24,49.56,44.12z" fill="#422B0D"/>
      <path d="M87.06,44.12c0,0-0.05-0.07-0.16-0.2c-0.1-0.13-0.24-0.31-0.42-0.54 c-0.15-0.16-0.33-0.35-0.54-0.57c-0.21-0.24-0.47-0.49-0.73-0.75c-0.27-0.25-0.55-0.51-0.84-0.72c-0.28-0.23-0.59-0.4-0.84-0.54 c-0.26-0.16-0.5-0.2-0.65-0.25c-0.08-0.03-0.15-0.03-0.21-0.04c-0.03,0.01-0.06-0.01-0.09,0l-0.04,0.01l-0.02,0l-0.01,0l-0.01,0 l0,0l0,0c0.12,0-0.27,0.01,0.27-0.01l-0.55,0.02c-0.14,0-0.05,0.01-0.04,0.01c0.03,0,0.05,0,0.07-0.01c0.08-0.03,0,0-0.02,0 c-0.03,0-0.07,0.01-0.11,0.03c-0.16,0.05-0.4,0.09-0.65,0.25c-0.25,0.14-0.56,0.31-0.84,0.54c-0.28,0.22-0.57,0.47-0.84,0.72 c-0.52,0.51-0.98,1.02-1.3,1.39c-0.33,0.38-0.51,0.6-0.51,0.6l-0.23,0.27c-1.37,1.6-3.89,1.87-5.62,0.61 c-1.18-0.86-1.69-2.2-1.47-3.48c0,0,0.07-0.41,0.27-1.12c0.21-0.71,0.56-1.72,1.25-2.91c0.69-1.18,1.69-2.57,3.38-3.84 c0.83-0.62,1.84-1.24,3.04-1.66c0.29-0.11,0.6-0.21,0.92-0.29c0.33-0.08,0.59-0.17,1.04-0.23l0.62-0.09 c0.19-0.02,0.47-0.05,0.51-0.05l0.55-0.04l0.31-0.01l0.03,0l0.06,0l0.13,0.01l0.26,0.01l0.51,0.03c0.34,0.03,0.67,0.09,1,0.14 c0.65,0.12,1.3,0.29,1.89,0.51c1.2,0.42,2.21,1.03,3.04,1.66c1.69,1.27,2.69,2.66,3.38,3.84c0.35,0.59,0.61,1.15,0.8,1.64 c0.21,0.47,0.36,0.97,0.48,1.34c0.11,0.36,0.11,0.55,0.16,0.72c0.03,0.16,0.04,0.25,0.04,0.25c0.37,2.02-1.12,3.93-3.31,4.26 C89.43,45.88,87.92,45.24,87.06,44.12z" fill="#422B0D"/>
    </g>
  </g>
  <g>
    <path d="M110.78,1.22c-7.06,2.83-7.68,10.86-7.68,10.86s-4.63-5.01-10.9-2.9 c-7.53,2.54-11.32,10.62-5.22,19.34c6.98,9.97,29.38,12.81,29.38,12.81s12.53-16.37,10.79-29.35 C125.74,1.43,116.12-0.92,110.78,1.22z" fill="#F44336"/>
    <path d="M110.78,1.22c0,0-1.73,0.71-2.41,1.38c0,0,4.76-0.49,9.07,1.97c2.84,1.62,5.48,4.52,6.44,9.69 c2.07,11.2-6.77,25.9-7.45,26.98c0.91-1.21,12.4-16.79,10.73-29.26C125.74,1.43,116.12-0.92,110.78,1.22z" fill="#C62828"/>
    <path d="M103.77,12.96c-0.69-0.83-1.51-1.55-2.01-1.95C99.24,9,97.14,8.48,94.42,8.73 c-2.72,0.24-5.15,1.76-5.15,1.76s2.64-1,6.39,0.79c1.97,0.94,3.7,2.34,5.15,3.98c0.52,0.59,1.04,1.23,1.74,1.58 s1.68,0.3,2.16-0.33C105.46,15.49,104.74,14.12,103.77,12.96z" fill="#C62828"/>
    <path d="M87.42,20.13c0.06-2.65,1.03-5.89,4.22-6.04c1.7-0.08,3.39,2.1,2.8,4.12 c-1,3.42-0.26,4.6,0.19,5.71c0.53,1.34,1.34,2.8,0.77,4.12c-0.57,1.32-1.9,1.41-3.61,0.27C91.41,28.07,87.3,25.55,87.42,20.13z" fill="#FF847A"/>
  </g>
  <g>
    <path d="M116.31,96.26c-6.38-4.14-13.3-0.02-13.3-0.02s1.43-6.67-3.91-10.58 c-6.41-4.7-15.2-3.13-18.81,6.88c-4.13,11.45,6.46,31.39,6.46,31.39s20.6,0.81,30.2-8.09C124.76,108.61,121.13,99.39,116.31,96.26 z" fill="#F44336"/>
    <path d="M116.31,96.26c0,0-1.58-1-2.52-1.18c0,0,3.14,3.61,3.62,8.55c0.31,3.26-0.54,7.09-4.21,10.85 c-7.96,8.15-25.07,9.4-26.34,9.46c1.51,0.05,20.87,0.46,30.1-8.09C124.76,108.61,121.13,99.39,116.31,96.26z" fill="#C62828"/>
    <path d="M102.67,97.3c0.28-1.04,0.4-2.12,0.44-2.76c0.19-3.22-0.6-5.24-2.36-7.32 c-1.77-2.08-4.41-3.2-4.41-3.2s2.33,1.58,3.03,5.68c0.37,2.15,0.22,4.37-0.29,6.5c-0.18,0.77-0.41,1.55-0.28,2.33 s0.72,1.55,1.51,1.57C101.58,100.14,102.28,98.76,102.67,97.3z" fill="#C62828"/>
    <path d="M87.39,88.07c2.2-1.48,5.4-2.56,7.37-0.04c1.04,1.34,0.24,3.97-1.75,4.66 c-3.37,1.15-3.91,2.44-4.56,3.44c-0.78,1.21-1.52,2.71-2.93,3c-1.41,0.29-2.24-0.74-2.3-2.8C83.21,95.91,82.89,91.1,87.39,88.07z " fill="#FF847A"/>
  </g>
  <g>
    <path d="M27.99,59.77c-7.12,2.67-7.92,10.68-7.92,10.68s-4.52-5.11-10.83-3.14 C1.65,69.68-2.31,77.68,3.6,86.53c6.76,10.12,29.09,13.45,29.09,13.45s12.89-16.09,11.44-29.1C42.95,60.3,33.38,57.75,27.99,59.77 z" fill="#F44336"/>
    <path d="M27.99,59.77c0,0-1.74,0.68-2.44,1.33c0,0,4.77-0.38,9.03,2.17c2.8,1.68,5.38,4.64,6.22,9.83 c1.82,11.25-7.34,25.75-8.04,26.81c0.93-1.19,12.77-16.52,11.37-29.02C42.95,60.3,33.38,57.75,27.99,59.77z" fill="#C62828"/>
    <path d="M20.73,71.36c-0.67-0.84-1.47-1.58-1.97-1.99c-2.48-2.07-4.57-2.63-7.29-2.45 c-2.73,0.18-5.19,1.65-5.19,1.65s2.66-0.94,6.37,0.93c1.95,0.98,3.65,2.42,5.06,4.09c0.51,0.6,1.01,1.25,1.71,1.61 s1.68,0.34,2.16-0.28C22.36,73.92,21.67,72.53,20.73,71.36z" fill="#C62828"/>
    <path d="M4.22,78.16c0.12-2.65,1.15-5.87,4.35-5.95c1.7-0.04,3.34,2.17,2.7,4.18 c-1.07,3.4-0.36,4.59,0.06,5.71c0.51,1.35,1.28,2.83,0.68,4.14c-0.6,1.31-1.93,1.37-3.62,0.19C8.04,86.18,3.99,83.58,4.22,78.16z " fill="#FF847A"/>
  </g>
</svg>

<svg viewBox="0 0 128 128" xmlns="http://www.w3.org/2000/svg">
  <defs>
    <radialGradient id="face_1_" cx="63.6" cy="-62.8999" gradientTransform="matrix(1 0 0 -1 0 0)" gradientUnits="userSpaceOnUse" r="56.9597">
      <stop offset="0.5" stop-color="#FDE030"/>
      <stop offset="0.9188" stop-color="#F7C02B"/>
      <stop offset="1" stop-color="#F4A223"/>
    </radialGradient>
    <radialGradient id="SVGID_1_" cx="27.832252" cy="67.550562" gradientTransform="matrix(0.9791 0 0 0.9301 0 0)" gradientUnits="userSpaceOnUse" r="19.4444">
      <stop offset="0" stop-color="#ED7770"/>
      <stop offset="0.9" stop-color="#ED7770" stop-opacity="0"/>
    </radialGradient>
    <radialGradient id="SVGID_2_" cx="102.903052" cy="67.550562" gradientTransform="matrix(0.9791 0 0 0.9301 0 0)" gradientUnits="userSpaceOnUse" r="19.4444">
      <stop offset="0" stop-color="#ED7770"/>
      <stop offset="0.9" stop-color="#ED7770" stop-opacity="0"/>
    </radialGradient>
  </defs>
  <path id="face_15_" d="M63.6,118.8 C35.7,118.8 5.6,101.3 5.6,62.9 C5.6,24.5 35.7,7 63.6,7 C79.1,7 93.4,12.1 104,21.4 C115.5,31.6 121.6,46 121.6,62.9 C121.6,79.8 115.5,94.1 104,104.3 C93.4,113.6 79,118.8 63.6,118.8 Z" fill="url(#face_1_)"/>
  <path d="M111.49,29.67 C116.82,38.27 119.6,48.51 119.6,59.9 C119.6,76.8 113.5,91.1 102,101.3 C91.4,110.6 77,115.8 61.6,115.8 C43.54,115.8 24.56,108.45 13.42,92.86 C24.18,110.52 44.41,118.8 63.6,118.8 C79,118.8 93.4,113.6 104,104.3 C115.5,94.1 121.6,79.8 121.6,62.9 C121.6,50.16 118.13,38.84 111.49,29.67 Z" fill="#EB8F00"/>
  <path d="M44.75,62.83 A17.5 17.5 0 1 1 9.75,62.83 A17.5 17.5 0 1 1 44.75,62.83 Z" fill="url(#SVGID_1_)" opacity="0.8"/>
  <path d="M118.25,62.83 A17.5 17.5 0 1 1 83.25,62.83 A17.5 17.5 0 1 1 118.25,62.83 Z" fill="url(#SVGID_2_)" opacity="0.8"/>
  <path id="mouth_91_" d="M100.69,65.04 C90.42,71 77.74,74.53 64,74.53 C50.26,74.53 37.58,71 27.31,65.04 C25.42,63.95 23.44,66.31 24.85,67.96 C34.15,78.83 48.23,85.76 64,85.76 C79.77,85.76 93.85,78.83 103.15,67.96 C104.57,66.3 102.58,63.94 100.69,65.04 Z" fill="#422B0D"/>
  <path d="M49.56,44.12 C49.56,44.12 49.51,44.05 49.4,43.92 C49.3,43.79 49.16,43.61 48.98,43.38 C48.83,43.22 48.65,43.03 48.44,42.81 C48.23,42.57 47.97,42.32 47.71,42.06 C47.44,41.81 47.16,41.55 46.87,41.34 C46.59,41.11 46.28,40.94 46.03,40.8 C45.77,40.64 45.53,40.6 45.38,40.55 C45.3,40.52 45.23,40.52 45.17,40.51 C45.14,40.52 45.11,40.5 45.08,40.51 L45.04,40.52 L45.02,40.52 L45.01,40.52 L45.01,40.52 L45.01,40.52 L45.01,40.52 C45.13,40.52 44.74,40.53 45.28,40.51 L44.73,40.53 C44.59,40.53 44.68,40.54 44.69,40.54 C44.72,40.54 44.74,40.54 44.76,40.53 C44.84,40.5 44.76,40.53 44.74,40.53 C44.71,40.53 44.67,40.54 44.63,40.56 C44.47,40.61 44.23,40.65 43.98,40.81 C43.73,40.95 43.42,41.12 43.14,41.35 C42.86,41.57 42.57,41.82 42.3,42.07 C41.78,42.58 41.32,43.09 41,43.46 C40.67,43.84 40.49,44.06 40.49,44.06 L40.26,44.33 C38.89,45.93 36.37,46.2 34.64,44.94 C33.46,44.08 32.95,42.74 33.17,41.46 C33.17,41.46 33.24,41.05 33.44,40.34 C33.65,39.63 34,38.62 34.69,37.43 C35.38,36.25 36.38,34.86 38.07,33.59 C38.9,32.97 39.91,32.35 41.11,31.93 C41.4,31.82 41.71,31.72 42.03,31.64 C42.36,31.56 42.62,31.47 43.07,31.41 L43.69,31.32 C43.88,31.3 44.16,31.27 44.2,31.27 L44.75,31.23 L45.06,31.22 L45.09,31.22 L45.15,31.22 L45.28,31.23 L45.54,31.24 L46.05,31.27 C46.39,31.3 46.72,31.36 47.05,31.41 C47.7,31.53 48.35,31.7 48.94,31.92 C50.14,32.34 51.15,32.95 51.98,33.58 C53.67,34.85 54.67,36.24 55.36,37.42 C55.71,38.01 55.97,38.57 56.16,39.06 C56.37,39.53 56.52,40.03 56.64,40.4 C56.75,40.76 56.75,40.95 56.8,41.12 C56.83,41.28 56.84,41.37 56.84,41.37 C57.21,43.39 55.72,45.3 53.53,45.63 C51.94,45.88 50.43,45.24 49.56,44.12 Z" fill="#422B0D"/>
  <path d="M87.06,44.12 C87.06,44.12 87.01,44.05 86.9,43.92 C86.8,43.79 86.66,43.61 86.48,43.38 C86.33,43.22 86.15,43.03 85.94,42.81 C85.73,42.57 85.47,42.32 85.21,42.06 C84.94,41.81 84.66,41.55 84.37,41.34 C84.09,41.11 83.78,40.94 83.53,40.8 C83.27,40.64 83.03,40.6 82.88,40.55 C82.8,40.52 82.73,40.52 82.67,40.51 C82.64,40.52 82.61,40.5 82.58,40.51 L82.54,40.52 L82.52,40.52 L82.51,40.52 L82.5,40.52 L82.5,40.52 L82.5,40.52 C82.62,40.52 82.23,40.53 82.77,40.51 L82.22,40.53 C82.08,40.53 82.17,40.54 82.18,40.54 C82.21,40.54 82.23,40.54 82.25,40.53 C82.33,40.5 82.25,40.53 82.23,40.53 C82.2,40.53 82.16,40.54 82.12,40.56 C81.96,40.61 81.72,40.65 81.47,40.81 C81.22,40.95 80.91,41.12 80.63,41.35 C80.35,41.57 80.06,41.82 79.79,42.07 C79.27,42.58 78.81,43.09 78.49,43.46 C78.16,43.84 77.98,44.06 77.98,44.06 L77.75,44.33 C76.38,45.93 73.86,46.2 72.13,44.94 C70.95,44.08 70.44,42.74 70.66,41.46 C70.66,41.46 70.73,41.05 70.93,40.34 C71.14,39.63 71.49,38.62 72.18,37.43 C72.87,36.25 73.87,34.86 75.56,33.59 C76.39,32.97 77.4,32.35 78.6,31.93 C78.89,31.82 79.2,31.72 79.52,31.64 C79.85,31.56 80.11,31.47 80.56,31.41 L81.18,31.32 C81.37,31.3 81.65,31.27 81.69,31.27 L82.24,31.23 L82.55,31.22 L82.58,31.22 L82.64,31.22 L82.77,31.23 L83.03,31.24 L83.54,31.27 C83.88,31.3 84.21,31.36 84.54,31.41 C85.19,31.53 85.84,31.7 86.43,31.92 C87.63,32.34 88.64,32.95 89.47,33.58 C91.16,34.85 92.16,36.24 92.85,37.42 C93.2,38.01 93.46,38.57 93.65,39.06 C93.86,39.53 94.01,40.03 94.13,40.4 C94.24,40.76 94.24,40.95 94.29,41.12 C94.32,41.28 94.33,41.37 94.33,41.37 C94.7,43.39 93.21,45.3 91.02,45.63 C89.43,45.88 87.92,45.24 87.06,44.12 Z" fill="#422B0D"/>
  <path d="M110.78,1.22 C103.72,4.05 103.1,12.08 103.1,12.08 C103.1,12.08 98.47,7.07 92.2,9.18 C84.67,11.72 80.88,19.8 86.98,28.52 C93.96,38.49 116.36,41.33 116.36,41.33 C116.36,41.33 128.89,24.96 127.15,11.98 C125.74,1.43 116.12,-0.92 110.78,1.22 Z" fill="#F44336"/>
  <path d="M110.78,1.22 C110.78,1.22 109.05,1.93 108.37,2.6 C108.37,2.6 113.13,2.11 117.44,4.57 C120.28,6.19 122.92,9.09 123.88,14.26 C125.95,25.46 117.11,40.16 116.43,41.24 C117.34,40.03 128.83,24.45 127.16,11.98 C125.74,1.43 116.12,-0.92 110.78,1.22 Z" fill="#C62828"/>
  <path d="M103.77,12.96 C103.08,12.13 102.26,11.41 101.76,11.01 C99.24,9 97.14,8.48 94.42,8.73 C91.7,8.97 89.27,10.49 89.27,10.49 C89.27,10.49 91.91,9.49 95.66,11.28 C97.63,12.22 99.36,13.62 100.81,15.26 C101.33,15.85 101.85,16.49 102.55,16.84 C103.25,17.19 104.23,17.14 104.71,16.51 C105.46,15.49 104.74,14.12 103.77,12.96 Z" fill="#C62828"/>
  <path d="M87.42,20.13 C87.48,17.48 88.45,14.24 91.64,14.09 C93.34,14.01 95.03,16.19 94.44,18.21 C93.44,21.63 94.18,22.81 94.63,23.92 C95.16,25.26 95.97,26.72 95.4,28.04 C94.83,29.36 93.5,29.45 91.79,28.31 C91.41,28.07 87.3,25.55 87.42,20.13 Z" fill="#FF847A"/>
  <path d="M116.31,96.26 C109.93,92.12 103.01,96.24 103.01,96.24 C103.01,96.24 104.44,89.57 99.1,85.66 C92.69,80.96 83.9,82.53 80.29,92.54 C76.16,103.99 86.75,123.93 86.75,123.93 C86.75,123.93 107.35,124.74 116.95,115.84 C124.76,108.61 121.13,99.39 116.31,96.26 Z" fill="#F44336"/>
  <path d="M116.31,96.26 C116.31,96.26 114.73,95.26 113.79,95.08 C113.79,95.08 116.93,98.69 117.41,103.63 C117.72,106.89 116.87,110.72 113.2,114.48 C105.24,122.63 88.13,123.88 86.86,123.94 C88.37,123.99 107.73,124.4 116.96,115.85 C124.76,108.61 121.13,99.39 116.31,96.26 Z" fill="#C62828"/>
  <path d="M102.67,97.3 C102.95,96.26 103.07,95.18 103.11,94.54 C103.3,91.32 102.51,89.3 100.75,87.22 C98.98,85.14 96.34,84.02 96.34,84.02 C96.34,84.02 98.67,85.6 99.37,89.7 C99.74,91.85 99.59,94.07 99.08,96.2 C98.9,96.97 98.67,97.75 98.8,98.53 C98.93,99.31 99.52,100.08 100.31,100.1 C101.58,100.14 102.28,98.76 102.67,97.3 Z" fill="#C62828"/>
  <path d="M87.39,88.07 C89.59,86.59 92.79,85.51 94.76,88.03 C95.8,89.37 95,92 93.01,92.69 C89.64,93.84 89.1,95.13 88.45,96.13 C87.67,97.34 86.93,98.84 85.52,99.13 C84.11,99.42 83.28,98.39 83.22,96.33 C83.21,95.91 82.89,91.1 87.39,88.07 Z" fill="#FF847A"/>
  <path d="M27.99,59.77 C20.87,62.44 20.07,70.45 20.07,70.45 C20.07,70.45 15.55,65.34 9.24,67.31 C1.65,69.68 -2.31,77.68 3.6,86.53 C10.36,96.65 32.69,99.98 32.69,99.98 C32.69,99.98 45.58,83.89 44.13,70.88 C42.95,60.3 33.38,57.75 27.99,59.77 Z" fill="#F44336"/>
  <path d="M27.99,59.77 C27.99,59.77 26.25,60.45 25.55,61.1 C25.55,61.1 30.32,60.72 34.58,63.27 C37.38,64.95 39.96,67.91 40.8,73.1 C42.62,84.35 33.46,98.85 32.76,99.91 C33.69,98.72 45.53,83.39 44.13,70.89 C42.95,60.3 33.38,57.75 27.99,59.77 Z" fill="#C62828"/>
  <path d="M20.73,71.36 C20.06,70.52 19.26,69.78 18.76,69.37 C16.28,67.3 14.19,66.74 11.47,66.92 C8.74,67.1 6.28,68.57 6.28,68.57 C6.28,68.57 8.94,67.63 12.65,69.5 C14.6,70.48 16.3,71.92 17.71,73.59 C18.22,74.19 18.72,74.84 19.42,75.2 C20.12,75.56 21.1,75.54 21.58,74.92 C22.36,73.92 21.67,72.53 20.73,71.36 Z" fill="#C62828"/>
  <path d="M4.22,78.16 C4.34,75.51 5.37,72.29 8.57,72.21 C10.27,72.17 11.91,74.38 11.27,76.39 C10.2,79.79 10.91,80.98 11.33,82.1 C11.84,83.45 12.61,84.93 12.01,86.24 C11.41,87.55 10.08,87.61 8.39,86.43 C8.04,86.18 3.99,83.58 4.22,78.16 Z" fill="#FF847A"/>
</svg>
